X: 2
T: Palm Sunday - Willie Clancy's - The Rolling Waves
C:
M: 6/8
L: 1/8
R: jig
K: Ador
P:A
B|:AGE G2E|G2E G2E|A2B c2d|e2d efg|
~e3 dBA|BAG Bcd|edc BAG|B2A A2B:|
|:~a3 efg|aga bge|gfg gfe|dBA GBd|
efg ded|BAG Bcd|edc BAG|B2A A2B:|
P:B
M: 4/4
K: Ador
AG|EAAB cedc |BG G2 BGAG |EAAB cdef |(3gfe dB BAAG |
EAAB cedc |BG G2 BGAG |EAAB cdef |(3gfe dB BAAG |
EAAB c3A |BG G2 BGAG |EAAB cdef |(3gfe dB BAAG |
EAAB cA A2 |BG G2 cAAG |EAAB cBce |dBGA BAAg ||
|:ea a2 aged |(3Bcd ef g2 fg | ea a2 agef |(3gfe dB BAAg |
ea a2 aged |(3Bcd ef g2 fg | af (3gfe fdef |(3gfe db BAAg :|
P:C
M: 6/8
K: Dmaj
|:FEF DED| D2d cAG|FEF FED|A2F GFE|
FEF DED|D2d cAG|FAF GBG|A2F GFE:|
D2d cAd| cAd cAG|FEF cAd|A2F GFE|
D2d cAd|fed cAG|FAF GBG|A2F GFE:|

